!!!OTL: 646. Jm Mai.
!!!ARE: Europa, Mitteleuropa, Deutschland, Schwaben
!!!SCT: E0646
!!!YEM: Copyright 1995, estate of Helmut Schaffrath.
**kern	**text
*ICvox	*
*M3/4	*
*k[f#c#g#]	*
*A:	*
!LO:TX:a:t=Neuere Volksweise.	!
{8e	1._Drauß
8e	iſt
=1	=1
4f#	Al-
4e	-les
4cc#	ſo
=2	=2
4cc#	präch-
4b}	-tig,
{8a	und
8g#	es
=3	=3
4b	iſt
4a	mer
4f#	ſo
=4	=4
2e}	wohl,
{8cc#	wenn
8cc#	mei'm
=5	=5
4cc#	Schätʒ-
4.b	-le
8b	be-
=6	=6
4cc#	-däch-
4b}	-tig
{4ee	a
=7	=7
4.dd#	Sträu-
8b	-ße-
8a	-le
8f#	ich
=8	=8
2e}	hol.
{4e	Mei
=9	=9
4dd	Herʒ-
8ddL	-le
8cc#J	.
8b	thut
8a	ſich
=10	=10
8aL	freu-
8g#J	.
4g#}	-e,
{8e	und
8e	es
=11	=11
4dd	blüht
8ddL	mer
8cc#J	.
8b	au
8a	da-
=12	=12
(4a	-rin
4g#;)}	.
{4e	im
=13	=13
4.cc#	Mai,
8cc#	im
8ee	ſchö-
8ee	-nen
=14	=14
4ee	Mai-
4dd}	-e
{8cc#	han
8b	i
=15	=15
8aL	viel
8eJ	.
4cc#	no
4b	im
=16	=16
2a}	Sinn,
{12eL	han
12c#J	.
12f#	i
=17	=17
8eL	viel
8cc#J	.
4cc#	no
4b	im
=18	=18
2a}	Sinn.
==	==
!!!AGN: Liebes - Lied, Jahreszeit, Fruehling
!!!ONB: ESAC (Essen Associative Code) Database: ERK2
!!!AMT: simple triple
!!!AIN: vox
!!!EED: Helmut Schaffrath
!!!EEV: 1.0
!!!GTL: Liebeslieder [Neuere (aus dem 18. bis 19. Jahrh.) - Liebeslust]
!!!URL-scan: https://rosdok.uni-rostock.de/mcrviewer/recordIdentifier/rosdok_ppn745177662/iview2/phys_0458.iview2?x=48.368023684967966&y=1531.385214705253&scale=0.7029437510502773&rotation=0&layout=singlePageLayout
!!!ENC: Anna Maria Matuszewska
!!!EEV: 2024/12/12
*-	*-
